X:1
T:Gloria Patri - Purcell
T:#
%%score [ 1 2 3 4 ]
L:1/8
Q:1/4=150
M:none
K:Ab
V:1 treble nm="Soprano" snm="S"
V:2 treble nm="Alto" snm="A"
V:3 treble-8 nm="Tenor" snm="T"
V:4 bass nm="Bass" snm="B"
V:1
"^Henry Purcell \n(1659-1695)""^Gloria Patri, Z 105" c12 B2 B2 | A8 G6 G2 | F6 F2 C8 | %3
w: Glo- ri- a|Pa- tri et|Fi- li- o|
 A4 G2 F2 =E2 C2 c4- | c2 c2 B2 A2 G8 | F8 z4 C4- | C2 B,2 C2 =D2 E6 =E2 | F6 F2 G8 | %8
w: et Spi- ri- tu- i, Spi\-|* ri- tu- i San-|cto: si\-|* cut e- rat in prin-|ci- pi- o|
 z2 (AG) (AB) (cd) e2 E6 | z4 d2 d2 c2 (BA) G2 AB | E2 E2 z4 e2 c2 d2 B2 | z4 d2 B2 c2 A2 B4 | %12
w: et * nunc * et * sem- per|et in sae- cu\- * la sae- cu-|lo- rum, sae- cu- lo- rum,|sae- cu- lo- rum, A-|
 c2 (BA G2 F2) =E4 d2 d2 | (d2 c2) B8 (A2 G2) | %14
w: men, A\- * * * men, sae- cu-|lo\- * rum, A\- *|
 G2[Q:1/4=148] (A2[Q:1/4=146] F2[Q:1/4=144] G2)[Q:1/4=141] =E4[Q:1/4=137] (F4- | %15
w: men, A\- * * men, A\-|
[Q:1/4=133] F4[Q:1/4=129] =E4)[Q:1/4=127] E8 |] %16
w: * * men.|
V:2
 z8 C8- | C4 =D2 D2 =E8 | F6 F2 G6 G2 | c8 =E4 F2 G2 | A2 c2 C6 C2 =D2 =E2 | F8 G8 | %6
w: Glo\-|* ri- a Pa-|tri et Fi- li-|o et Spi- ri-|tu- i, Spi- ri- tu- i|San- cto:|
 z4 c6 d2 c2 B2 | A6 A2 G6 G2 | F8 z2 (EF) (ED) (CB,) | A,2 A6 z4 B,2 B,2 | %10
w: si- cut e- rat|in prin- ci- pi-|o et * nunc * et *|sem- per et in|
 C2 (DE) F2 ED A2 A2 z4 | A,2 C2 B,2 D2 z4 B,2 D2 | C2 E2 D4 C2 (=D=E F2 G2) | %13
w: sae- cu\- * la sae- cu- lo- rum,|sae- cu- lo- rum, sae- cu-|lo- rum, A- men, A\- * * *|
 A4 B,2 B,2 C2 C2 (=D2 =E2) | F2 !courtesy!_E2 =D2 B2 (G4 A2 B2) | c16 |] %16
w: men, et in sae- cu- la *|sae- cu- lo- rum, A\- * *|men.|
V:3
 z16 | c12 B2 B2 | A8 G6 G2 | F6 F2 C8 | A4 G2 F2 =E2 C2 c4- | c2 c2 B2 A2 G8 | F8 z4 C4- | %7
w: |Glo- ri- a|Pa- tri et|Fi- li- o|et Spi- ri- tu- i, Spi\-|* ri- tu- i San-|cto, si\-|
 C2 B,2 C2 =D2 E6 =E2 | F6 F2 G8 | z2 (AG) (AB) (cd) e2 E6 | z4 d2 d2 c2 (BA) G2 AB | %11
w: * cut e- rat in prin-|ci- pi- o|et * nunc * et * sem- per|et in sae- cu\- * la sae- cu-|
 E2 E2 z4 e2 c2 d2 B2 | z4 d2 B2 c2 A2 B4 | c2 (BA G2 F2) =E4 d2 d2 | (d2 c2) B8 (A2 G2) | G16 |] %16
w: lo- rum, sae- cu- lo- rum,|sae- cu- lo- rum, A-|men, A\- * * * men, sae- cu-|lo\- * rum, A\- *|men.|
V:4
 z16 | z8 C,8- | C,4 =D,2 D,2 =E,8 | F,6 F,2 G,6 G,2 | C8 =E,4 F,2 G,2 | %5
w: |Glo\-|* ri- a Pa-|tri et Fi- li-|o et Spi- ri-|
 A,2 C2 C,4 x2 C,2 =D,2 =E,2 | F,8 G,8 | z4 C6 D2 C2 B,2 | A,6 A,2 G,6 G,2 | %9
w: tu- i, Spi- ri- tu- i|San- cto,|si- cut e- rat|in prin- ci- pi-|
 F,8 z2 (E,F,) (E,D,) (C,B,,) | A,,2 A,6 z4 B,,2 B,,2 | C,2 (D,E,) F,2 E,D, A,2 A,2 z4 | %12
w: o et * nunc * et *|sem- per et in|sae- cu- * la sae- cu- lo- rum,|
 A,,2 C,2 B,,2 D,2 z4 B,,2 D,2 | C,2 E,2 D,4 C,2 (=D,=E, F,2 G,2) | A,4 B,,4 C,8- | C,16 |] %16
w: sae- cu- lo- rum, sae- cu-|lo- rum, A- men, A\- * * *|men, A- men.||

